!!!OTL: Waise und Stiefmutter Es war ein Maegdlein zart,
!!!ARE: Europa, Mitteleuropa, Deutschland (), Pommern, Sandfoerde und Jatznick
!!!YOR: 5, S. 284
!!    1930 aufgezeichnet
!!!SCT: Q0116
!!!YEM: Copyright 1995, estate of Helmut Schaffrath.
**kern
*ICvox
*Ivox
*M6/8
*k[f#c#g#]
*A:
{8e
=1
4a
8g#
4f#
8c#
=2
4.d
4r}
{8a
=3
4g#
8f#
4e
8d
=4
4.c#
4r}
{8e
=5
4cc#
8cc#
4cc#
8cc#
=6
4.dd
4r}
{8f#
=7
4e
8a
4b
8cc#
=8
4.a
4r}
{8e
=9
4cc#
8cc#
4cc#
8cc#
=10
4.dd
4r}
{8f#
=11
4e
8a
4b
8cc#
=12
4.a
4r}
==
!!!AGN: Ballade, Waise, boese Stiefmutter, Klage am Grab, Geist
!!!ONB: ESAC (Essen Associative Code) Database: BALLADE
!!!AMT: compound duple
!!!AIN: vox
!!!EED: Helmut Schaffrath
!!!EEV: 1.0
*-
